X:290
T:Rough Life
M:4/4
C:© Paul Gitlitz 2009
R:Rag
K:F
"F6"cdfd "Dm"cAFA|"Bb"GFGA "C7"GFDC|"F6"F2FD "Dm"CDFG|"F6"AF2A "C7"GAB=B|!
"F6"cdfd "Dm"cAFA|"Bb"GFGA "C7"GFDC|"F6"F2FD "Dm"CDFG|1"C7"AFGE "F6"FAB=B:|2"C7"AFGE "F6"Fc=B_B|!
|:"F6"Ac2A d2c2|"Bb"Bd2B e2d2|"C7"ce2c g2e2|"F6"ffed cdcB|!
"F6"Ac2A d2c2|"Bb"Bd2B e2d2|"C7"ce2c g2ec|1"F6"AFGE "C7"Fc=B_B:|2AFGE "F6"F4|]
